src/assets/duotone/Data.svg

<?xml version="1.0" encoding="UTF-8"?>
<svg width="24" height="24" viewBox="0 0 24 24" xmlns="http://www.w3.org/2000/svg">
 <path d="m20 14.25c1.2426 0 2.25-1.0074 2.25-2.25s-1.0074-2.25-2.25-2.25-2.25 1.0074-2.25 2.25 1.0074 2.25 2.25 2.25z"/>
 <path d="m20 6.25c1.2426 0 2.25-1.0074 2.25-2.25s-1.0074-2.25-2.25-2.25-2.25 1.0074-2.25 2.25 1.0074 2.25 2.25 2.25z"/>
 <path d="m20 22.25c1.2426 0 2.25-1.0074 2.25-2.25s-1.0074-2.25-2.25-2.25-2.25 1.0074-2.25 2.25 1.0074 2.25 2.25 2.25z"/>
 <path d="m4 14.25c1.2426 0 2.25-1.0074 2.25-2.25s-1.0074-2.25-2.25-2.25-2.25 1.0074-2.25 2.25 1.0074 2.25 2.25 2.25z"/>
 <path d="m19 12.75c0.41 0 0.75-0.34 0.75-0.75s-0.34-0.75-0.75-0.75h-7.25v-4.25c0-1.58 0.67-2.25 2.25-2.25h5c0.41 0 0.75-0.34 0.75-0.75s-0.34-0.75-0.75-0.75h-5c-2.42 0-3.75 1.33-3.75 3.75v4.25h-5.25c-0.41 0-0.75 0.34-0.75 0.75s0.34 0.75 0.75 0.75h5.25v4.25c0 2.42 1.33 3.75 3.75 3.75h5c0.41 0 0.75-0.34 0.75-0.75s-0.34-0.75-0.75-0.75h-5c-1.58 0-2.25-0.67-2.25-2.25v-4.25h7.25z" opacity=".4"/>
</svg>

<svg width="24" height="24" viewBox="0 0 24 24"  xmlns="http://www.w3.org/2000/svg">
<path d="M20 14.25C21.2426 14.25 22.25 13.2426 22.25 12C22.25 10.7574 21.2426 9.75 20 9.75C18.7574 9.75 17.75 10.7574 17.75 12C17.75 13.2426 18.7574 14.25 20 14.25Z" />
<path d="M20 6.25C21.2426 6.25 22.25 5.24264 22.25 4C22.25 2.75736 21.2426 1.75 20 1.75C18.7574 1.75 17.75 2.75736 17.75 4C17.75 5.24264 18.7574 6.25 20 6.25Z" />
<path d="M20 22.25C21.2426 22.25 22.25 21.2426 22.25 20C22.25 18.7574 21.2426 17.75 20 17.75C18.7574 17.75 17.75 18.7574 17.75 20C17.75 21.2426 18.7574 22.25 20 22.25Z" />
<path d="M4 14.25C5.24264 14.25 6.25 13.2426 6.25 12C6.25 10.7574 5.24264 9.75 4 9.75C2.75736 9.75 1.75 10.7574 1.75 12C1.75 13.2426 2.75736 14.25 4 14.25Z" />
<path opacity="0.4" d="M19 12.75C19.41 12.75 19.75 12.41 19.75 12C19.75 11.59 19.41 11.25 19 11.25H11.75V7C11.75 5.42 12.42 4.75 14 4.75H19C19.41 4.75 19.75 4.41 19.75 4C19.75 3.59 19.41 3.25 19 3.25H14C11.58 3.25 10.25 4.58 10.25 7V11.25H5C4.59 11.25 4.25 11.59 4.25 12C4.25 12.41 4.59 12.75 5 12.75H10.25V17C10.25 19.42 11.58 20.75 14 20.75H19C19.41 20.75 19.75 20.41 19.75 20C19.75 19.59 19.41 19.25 19 19.25H14C12.42 19.25 11.75 18.58 11.75 17V12.75H19Z" />
</svg>
